X:1
T:Title
%%score { ( 1 3 5 ) | ( 2 4 6 ) }
L:1/8
M:6/8
K:A
V:1 treble nm="Grand Piano"
V:3 treble 
V:5 treble 
V:2 bass 
V:4 bass 
V:6 bass 
V:1
 z3 z2[Q:1/4=100] [CE]/[CE]/ | [CE]>[A,C][CE] [CA]2 [Ec]/[DB]/ | [CA]2 [DA] [CE]2 [CE]/[CE]/ | %3
 A>AA [^DA]>[DG]A | B3- B2 E/E/ | [CE]>[A,C][CE] [CA]2 [Ec]/[DB]/ | A2 c [Ee]3 |[M:1/8] [Fd] | %8
[M:3/4] c>c cc/A/- AB |[M:5/8] A2- [DA-] [CA]2 |[M:1/8] c |[M:3/4] e>e ec/c/- cA |[M:5/8] c-c- c3 | %13
[M:1/8] A |[M:3/4] c>c c[^DB]- [DB]/[DA]/F | B6 | [A,CE]>[A,C] [A,CE] [CA]2 [Ec]/[DB]/ | %17
[M:27/32] z/4 z/4 z/4 z/4 z/4 z/4 z/4 z/4 z/4 z/4 z/ e/4-e/4-e/4-e/4-e/4-e/4-e/-<e/ z/4 z/4 z/4 z/ | %18
[M:3/4] (9:8:9c3/2c3/4 c-c/8c3/8A3/2-A3/8B-B/8[Q:1/4=98][Q:1/4=96][Q:1/4=94][Q:1/4=92][Q:1/4=90][Q:1/4=88][Q:1/4=85][Q:1/4=83][Q:1/4=81][Q:1/4=79][Q:1/4=77] | %19
[M:5/8] A-A- A3 |] %20
V:2
 z3 z2 [A,,A,]/[A,,A,]/ | [A,,A,]>[A,,E,][A,,A,] [A,,E,]2 [A,,E,]/[A,,E,]/ | %2
 [A,,E,]2 [A,,F,] [A,,A,]2 [A,,A,]/[A,,A,]/ | [F,A,C]>[F,A,C][F,A,C] [B,,F,]>[B,,F,][F,B,^D] | %4
 [E,G,D]3- [E,G,D]2 [E,G,D]/[E,G,D]/ | [A,,A,]>[A,,E,][A,,A,] [A,,E,]2 [A,,E,]/[A,,E,]/ | %6
 [A,C]2 [A,E] [C,A,]3 |[M:1/8] [D,A,] | %8
[M:3/4] [E,A,E]>[E,A,E] [E,A,E][E,A,E]/[E,A,C]/- [E,A,C][E,G,D] |[M:5/8] z2 F, E,2 | %10
[M:1/8][K:treble] [A,E] |[M:3/4] [A,CA]>[A,CA] [A,CA][A,EA]/[A,EA]/- [A,EA][K:bass][A,CE] | %12
[M:5/8] E z z z2 |[M:1/8] [A,C] |[M:3/4] [F,A,C]>[F,A,C] [F,A,C][B,,A,]- [B,,A,]/[B,,F,]/[A,B,^D] | %15
 [G,B,E]>[G,B,] [F,A,] [E,G,]2 [E,G,D]/[E,G,D]/ | z z/ E,/ A,, [A,,E,]2 [A,,E,]/[A,,E,]/ | %17
[M:27/32] [A,C]/4-[A,C]/4-[A,C]/4-[A,C]/4-[A,C]/-<[A,C]/[A,E]/-<[A,E]/[C,A,]/4-[C,A,]/4-[C,A,]/4-[C,A,]/4-[C,A,]/4-[C,A,]/4-[C,A,]/-<[C,A,]/[D,A,]/[D,A,]3/4 | %18
[M:3/4] (9:8:9[E,A,E]3/2[E,A,E]3/4 [E,A,E]-[E,A,E]/8[E,A,E]3/8[E,A,C]3/2-[E,A,C]3/8[E,G,D]-[E,G,D]/8 | %19
[M:5/8] z2 F,- F,/4 z/4 z/ z |] %20
V:3
 x6 | x6 | x6 | x6 | x6 | x6 | x6 |[M:1/8] x |[M:3/4] x6 |[M:5/8] [A,C]2 z z2 |[M:1/8] x | %11
[M:3/4] x6 |[M:5/8] z AF E2 |[M:1/8] x |[M:3/4] x6 | z z/ E/ ^D =D2 E/E/ | x6 | %17
[M:27/32] A/4-A/4-A/4-A/4-A/-<A/c/-<c/E/-<E/=G/4-G/4-G/-<G/[Fd]/[Fd]3/4 |[M:3/4] x6 | %19
[M:5/8] z2 D- D/4 z/4 z/ z |] %20
V:4
 x6 | x6 | x6 | x6 | x6 | x6 | x6 |[M:1/8] x |[M:3/4] x6 |[M:5/8] A,,-A,,- A,,3 | %10
[M:1/8][K:treble] x |[M:3/4] x5[K:bass] x |[M:5/8] A,-A,- A,3 |[M:1/8] x |[M:3/4] x6 | x6 | %16
 A,,2 z2 z2 |[M:27/32] x27/4 |[M:3/4] x6 |[M:5/8] z z2 E,2 |] %20
V:5
 x6 | x6 | x6 | x6 | x6 | x6 | x6 |[M:1/8] x |[M:3/4] x6 |[M:5/8] x5 |[M:1/8] x |[M:3/4] x6 | %12
[M:5/8] x5 |[M:1/8] x |[M:3/4] x6 | x6 | x6 |[M:27/32] x27/4 |[M:3/4] x6 | %19
[M:5/8] [A,C]2- [A,C]/4 z/4 z/ C2 |] %20
V:6
 x6 | x6 | x6 | x6 | x6 | x6 | x6 |[M:1/8] x |[M:3/4] x6 |[M:5/8] x5 |[M:1/8][K:treble] x | %11
[M:3/4] x5[K:bass] x |[M:5/8] x5 |[M:1/8] x |[M:3/4] x6 | x6 | x6 |[M:27/32] x27/4 |[M:3/4] x6 | %19
[M:5/8] A,,-A,,- A,,3 |] %20

